icons/desktop/16/svg/settings-16.svg

<svg width="16" height="16" viewBox="0 0 16 16" fill="none" xmlns="http://www.w3.org/2000/svg">
<path fill-rule="evenodd" clip-rule="evenodd" d="M8.00038 5C9.6572 5.00021 11.0004 6.34313 11.0004 8C11.0004 9.65687 9.6572 10.9998 8.00038 11C6.34338 11 5.00038 9.657 5.00038 8C5.00038 6.343 6.34338 5 8.00038 5ZM8.00038 6.5C7.17338 6.5 6.50038 7.173 6.50038 8C6.50038 8.827 7.17338 9.5 8.00038 9.5C8.8272 9.49979 9.50038 8.82687 9.50038 8C9.50038 7.17313 8.8272 6.50021 8.00038 6.5Z" fill="black"/>
<path fill-rule="evenodd" clip-rule="evenodd" d="M8.60487 0C9.3798 0.000123806 10.0632 0.509557 10.2836 1.25293L10.681 2.59668C10.9076 2.71301 11.1204 2.84341 11.3207 2.98047L12.7025 2.65039C13.4549 2.46931 14.2382 2.80521 14.6254 3.47656L15.2279 4.51855C15.6178 5.19352 15.515 6.04704 14.9721 6.60938L14.0082 7.60645C14.0222 7.7304 14.0346 7.86663 14.0346 8C14.0346 8.12482 14.0222 8.25253 14.0092 8.36914L14.9848 9.39648C15.519 9.95889 15.6168 10.8049 15.2308 11.4756L14.6283 12.5186C14.2624 13.1515 13.5447 13.4862 12.8324 13.3701L12.6898 13.3408L11.3392 13.0039C11.1339 13.1456 10.9147 13.28 10.681 13.4004L10.2826 14.7461C10.0622 15.4895 9.37883 15.9989 8.6039 15.999H7.40175C6.62173 15.999 5.93467 15.483 5.71913 14.7324L5.33925 13.4102C5.09831 13.2878 4.87215 13.1502 4.65956 13.0039L3.30995 13.3408C2.55234 13.5298 1.76085 13.194 1.3705 12.5186L0.768934 11.4766C0.382149 10.8062 0.481828 9.95868 1.016 9.39648L1.98964 8.36816C1.97672 8.25158 1.9662 8.12369 1.9662 8C1.9662 7.86567 1.97741 7.72947 1.99159 7.60547L1.02968 6.60938C0.487475 6.04793 0.382211 5.19373 0.772841 4.51758L1.3744 3.47559C1.76147 2.80422 2.54496 2.46855 3.29725 2.64941L4.68007 2.98047C4.88732 2.83934 5.10681 2.70619 5.34022 2.58789L5.72011 1.2666C5.93563 0.515979 6.6227 0 7.40272 0H8.60487ZM7.40272 1.5C7.29104 1.5 7.19323 1.57374 7.16249 1.68066L6.68788 3.33105C6.62506 3.54968 6.46607 3.72859 6.25624 3.81641C5.92113 3.95657 5.60433 4.1514 5.28944 4.38867C5.11072 4.52335 4.8811 4.57159 4.66347 4.51953L2.94862 4.1084H2.94667C2.84022 4.08274 2.72897 4.13057 2.67421 4.22559L2.67323 4.22656L2.07167 5.26855C2.01649 5.36436 2.03106 5.48691 2.10878 5.56738L3.32265 6.82422C3.48082 6.98813 3.55589 7.21548 3.52675 7.44141C3.49228 7.70841 3.4662 7.83997 3.4662 8C3.4662 8.15506 3.49138 8.26729 3.52382 8.53711C3.55044 8.75871 3.47719 8.98159 3.32362 9.14355L2.10292 10.4287C2.0273 10.5084 2.01294 10.6301 2.06776 10.7256L2.66933 11.7676C2.72502 11.8639 2.83848 11.9126 2.94667 11.8857L4.63612 11.4639L4.71913 11.4482C4.91391 11.4226 5.11265 11.4745 5.27089 11.5947C5.51251 11.7785 5.75428 11.9376 6.00331 12.0654L6.25526 12.1826L6.33143 12.2197C6.50345 12.3156 6.63189 12.4765 6.6869 12.668L7.16151 14.3184L7.19569 14.3916C7.24133 14.4575 7.31792 14.499 7.40175 14.499H8.6039C8.71473 14.4989 8.81257 14.4258 8.84413 14.3193L9.33827 12.6533L9.36659 12.5752C9.44196 12.3969 9.58388 12.2533 9.76405 12.1768C10.095 12.0364 10.4098 11.8368 10.7289 11.5947L10.7992 11.5469C10.968 11.4467 11.171 11.4159 11.3637 11.4639L13.0531 11.8857C13.1612 11.9124 13.2739 11.8638 13.3295 11.7676L13.931 10.7266C13.9867 10.6295 13.9721 10.5092 13.8969 10.4297L13.8959 10.4287L12.6762 9.14355C12.5217 8.98072 12.4482 8.75689 12.476 8.53418C12.5091 8.2688 12.5346 8.15278 12.5346 8C12.5346 7.83788 12.5078 7.70904 12.474 7.4375C12.4461 7.21255 12.5216 6.98727 12.6791 6.82422L13.893 5.56738C13.9696 5.48788 13.9847 5.36635 13.9291 5.26953L13.3266 4.22754C13.2718 4.13246 13.1596 4.08375 13.0531 4.10938L11.3363 4.51953C11.1188 4.57144 10.8889 4.52332 10.7103 4.38867C10.399 4.15379 10.0898 3.96049 9.76503 3.82324C9.55834 3.73586 9.40197 3.5599 9.33827 3.34473L8.84511 1.67871C8.8134 1.57252 8.71555 1.50012 8.60487 1.5H7.40272Z" fill="black"/>
</svg>

<!-- This Source Code Form is subject to the terms of the Mozilla Public
   - License, v. 2.0. If a copy of the MPL was not distributed with this
   - file, You can obtain one at http://mozilla.org/MPL/2.0/. -->
<svg xmlns="http://www.w3.org/2000/svg" width="16" height="16" fill="context-fill" fill-opacity="context-fill-opacity" viewBox="0 0 16 16">
    <path d="M8 5a3 3 0 1 1 0 6 3 3 0 0 1 0-6m0 1.5c-.827 0-1.5.673-1.5 1.5S7.173 9.5 8 9.5 9.5 8.827 9.5 8 8.827 6.5 8 6.5" />
    <path d="M8.605 0c.775 0 1.458.51 1.679 1.253l.397 1.344q.34.176.64.383l1.382-.33a1.75 1.75 0 0 1 1.922.827l.603 1.042a1.75 1.75 0 0 1-.256 2.09l-.964.997c.014.124.027.26.027.394 0 .125-.013.253-.026.37l.976 1.026a1.75 1.75 0 0 1 .246 2.08l-.603 1.043a1.75 1.75 0 0 1-1.796.851l-.142-.03-1.35-.336a6 6 0 0 1-.659.396l-.398 1.346A1.75 1.75 0 0 1 8.603 16h-1.2a1.75 1.75 0 0 1-1.683-1.267l-.38-1.322a6 6 0 0 1-.68-.406l-1.349.337a1.75 1.75 0 0 1-1.94-.822L.77 11.477a1.75 1.75 0 0 1 .247-2.08l.974-1.029A3 3 0 0 1 1.966 8c0-.134.011-.27.026-.395L1.03 6.61a1.75 1.75 0 0 1-.257-2.091l.601-1.042a1.75 1.75 0 0 1 1.923-.827l1.383.331c.207-.14.427-.274.66-.392l.38-1.321A1.75 1.75 0 0 1 7.403 0zM7.403 1.5a.25.25 0 0 0-.24.18l-.475 1.651a.75.75 0 0 1-.432.485c-.335.14-.652.335-.967.573a.75.75 0 0 1-.626.13L2.95 4.11h-.002a.25.25 0 0 0-.273.117L2.071 5.27a.25.25 0 0 0 .037.298l1.214 1.257a.75.75 0 0 1 .204.617c-.035.267-.06.399-.06.559 0 .155.024.267.057.537a.75.75 0 0 1-.2.607L2.102 10.43a.25.25 0 0 0-.035.297l.601 1.042c.056.096.17.145.278.118l1.69-.422.082-.016a.75.75 0 0 1 .552.147c.242.183.483.343.732.47l.252.118.076.037a.75.75 0 0 1 .356.448l.475 1.65.034.074a.25.25 0 0 0 .206.107h1.202a.25.25 0 0 0 .24-.18l.494-1.666.029-.078a.75.75 0 0 1 .397-.398c.331-.14.646-.34.965-.582l.07-.048a.75.75 0 0 1 .565-.083l1.69.422a.25.25 0 0 0 .275-.118l.602-1.041a.25.25 0 0 0-.034-.297l-.001-.001-1.22-1.285a.75.75 0 0 1-.2-.61c.033-.265.059-.381.059-.534 0-.162-.027-.291-.061-.562a.75.75 0 0 1 .205-.614l1.214-1.257a.25.25 0 0 0 .036-.297l-.602-1.042a.25.25 0 0 0-.274-.119l-1.717.41a.75.75 0 0 1-.626-.13 4.5 4.5 0 0 0-.945-.566.75.75 0 0 1-.427-.478L8.844 1.68a.25.25 0 0 0-.24-.179z" />
</svg>
